X: 34664
T: Road To Cashel, The
R: reel
M: 4/4
K: Edorian
FEED E3B|FE~E2 F2AB|FEED E2BA|1 FDD2 B/c/dAB:|2 FDD2 B/c/dAd||
BA B/c/d egfe|d2ab afed|B/c/d ge ~f3e|dBAF FEE2|
BA B/c/d egfe|d2ab afed|bf~f2 afef|bfaf edBA|

